X:1
T:The First of the Emigrants
M:3/4
L:1/4
K:C
 z z/2 G/2 G| G3/2 F/2 G| c B3/2 c/2| A3/2 G/2 E| G z A/2B/2| c G E/2E/2|\
 F/2E/2 D2| z E/2D/2
M:3/4
| C3/2 D/2 C| C E3/2 G/2| F A B| c3/2 z/2 B/2A/2| G c3/2 E/2| D C D|\
 C3| z2 G| G/2 G G/2- G| c B3/2 c/2| A/2 G/2- G E| G z A/2B/2| c G3/2 E/2|\
 E/2 D- C/2C/2 D/2| D z E/2D/2| C3/2 D/2 C| C2 E/2E/2| F A c| c3/2- c/4B/4 B/2A/2|\
 G3/2 c/2 E| D C D| C3/2 z z/2|
